X:1
T:Title
%%score { ( 1 4 ) | ( 2 3 ) }
L:1/8
Q:1/4=96
M:4/4
K:Eb
V:1 treble nm="Grand Piano"
V:4 treble 
V:2 bass 
V:3 bass 
V:1
 [GB]2 [Ac][GB] G2 EF | GA[B,EG][A,DF] [G,E]3 [EGB] | c2 e2 B2 GE | A2 G2 [B,DF]2 [AB]2 | %4
w: Henry~P.~Morton * * * * *||||
 [GB]2 [Ac][GB] G2 EF | GA[EG][DF] E2 FF | G2 [F=A]2 [FB]2 [Gc][Ge] | d2 c2 z2 A2 | %8
w: ||||
 [Ge][Ae][Ge][Ae] [Ge]2 [Ad][Ac] | [GB]2 [GB]2 [EG]4 | [DB][DB][DF][EG] [FA]2 [GB][FA] | %11
w: |||
 [EG]2 [Ac]2 [GB]4 | [Ge][Ae][Ge][Ae] [Ge]2 [Ad][Ac] | [GB]2 [GB]2 c4 | e2 dc B3 E | %15
w: ||||
 [EG][FA][EG][DF] E4 |] %16
w: |
V:2
 [E,E]2 [E,E][E,E] [E,B,E]2 [G,B,][K:treble][A,CE] | [B,E][B,F][K:bass]B,,B,, E,3 E, | %2
 [A,EA]2 [A,CE]2[K:bass] [G,E]2 [E,B,E][G,B,] | [F,B,D]2 [E,B,E]2 z2 D2 | %4
 [E,E]2 [E,E][E,E] [E,B,E]2 [G,B,][K:treble][A,CE] | %5
 [B,E][B,F][K:bass][B,,B,][B,,A,] [C,G,C]2 [D,B,][D,B,] | [E,B,E]2 [E,C]2 [D,B,]2 [E,B,][E,B,] | %7
 [F,B,F]2 [F,=A,E]2 D2 z2 | [E,B,][E,C][E,B,][E,C] [E,B,]2 [E,C][E,D] | [E,E]2 [E,E]2 [E,B,]4 | %10
 [B,,B,][B,,B,][B,,B,][B,,B,] [B,,B,]2 [B,,B,][B,,B,] | [E,B,]2 [E,E]2 [E,E]4 | %12
 [E,B,][E,C][E,B,][E,C] [E,B,]2 [E,C][E,D] | [E,E]2 [E,E]2[K:treble] [A,EA]4 | %14
 [A,CA]2 [A,B,A][K:bass][A,E] [E,G,E]3 [E,G,] | [B,,B,][B,,B,][B,,B,][B,,A,] [E,G,]4 |] %16
V:3
 x7[K:treble] x | x2[K:bass] x6 | x4[K:bass] x4 | z4 B,,4 | x7[K:treble] x | x2[K:bass] x6 | x8 | %7
 z4 B,4 | x8 | x8 | x8 | x8 | x8 | x4[K:treble] x4 | x3[K:bass] x5 | x8 |] %16
V:4
 x8 | x8 | x8 | x8 | x8 | x8 | x8 | z4 B4 | x8 | x8 | x8 | x8 | x8 | x8 | x8 | x8 |] %16

